!!!!SEGMENT: Any1006d-Missa_Sine_nomine-Sanctus--Jena_21.krn
!!!id: Any1006d
!!!SMS: Jena 21
!!!AGN: Mass; Sanctus
!!!voices: 4
!!!OPR: Missa Sine nomine (Jena 21)
!!!COM: Anonymous
!!!OTL: Sanctus
**kern	**kern	**kern	**kern
*part4	*part3	*part2	*part1
*staff4	*staff3	*staff2	*staff1
*I"Bassus	*I"Tenor	*I"Altus	*I"Superius
*I'B	*I'T	*I'A	*I'S
*clefF4	*clefGv2	*clefGv2	*clefG2
*k[b-]	*k[b-]	*k[b-]	*k[b-]
*F:	*F:	*F:	*F:
*M2/1	*M2/1	*M2/1	*M2/1
*met(C|)	*met(C|)	*met(C|)	*met(C|)
=1	=1	=1	=1
!!section: Sanctus
!!!OMD: Sanctus
[0GG	[0G	[0d	[0g
=2	=2	=2	=2
0GG]	0G]	0d]	0g]
=3	=3	=3	=3
0D	0A	1.d	0f
.	.	2c	.
=4	=4	=4	=4
1G	1B-y	1B-y	1g
[1F	[1c	1A	[1a
=5	=5	=5	=5
2F]	1c]	0F	2a]
2E	.	.	2g
2D	[1d	.	2f
2C	.	.	2e
=6	=6	=6	=6
1BB-y	2d]	1F	1d
.	2c	.	.
1GG	1B-y	2G	1g
.	.	[2d	.
=7	=7	=7	=7
1D	2A	4d]	2a
.	.	4e	.
.	1d	2f	1b-y
2GG	.	2g	.
2AA	2c	2e	[2a
=8	=8	=8	=8
2BB-y	2B-y	2d	2a]
2E-X	2G	2c	1g
1D	1A	1d	.
.	.	.	2f#i
=9	=9	=9	=9
1E-i	1G	2.B-y	1g
.	.	4c	.
2D	2F	2d	1b-y
2E-i	[2B-y	2G	.
=10	=10	=10	=10
1C	2B-]	4A	1cc
.	.	4G	.
.	2A	4F	.
.	.	4E	.
2BB-y	2B-y	2D	2dd
2C	2G	[2G	[2cc
=11	=11	=11	=11
1AA	1A	2G]	2cc]
.	.	2F#i	4b-y
.	.	.	4a
1GG	1D	1G	1b-y
=12	=12	=12	=12
2.C	2E	1r	1g
.	1G	.	.
4D	.	.	.
2E	.	2c	2e
2D	[2A	[2d	2f
=13	=13	=13	=13
2F	4A]	2d]	2d
.	4F	.	.
1C	1G	1c	1e
2D	2D	[2A	[2d
=14	=14	=14	=14
1AA	1E	1A]	2d]
.	.	.	2c#i
1BB-y	1D	2F	1d
.	.	2f	.
=15	=15	=15	=15
2r	0r	2e	0r
1F	.	2d	.
.	.	4c	.
.	.	4B-y	.
2E	.	2c	.
=16	=16	=16	=16
2D	0r	2B-y	0r
4C	.	2f	.
4BB-y	.	.	.
2C	.	2e	.
2BB-y	.	[2d	.
=17	=17	=17	=17
1F	0r	2d]	0r
.	.	1c	.
2E	.	.	.
2D	.	[2B-y	.
=18	=18	=18	=18
1C	0r	2B-]	0r
.	.	2A	.
1BB-y	.	1B-y	.
=19	=19	=19	=19
0r	1r	0r	2.dd
.	.	.	4cc
.	1d	.	2b-y
.	.	.	4a
.	.	.	4g
=20	=20	=20	=20
0r	2c	0r	2a
.	1B-y	.	2g
.	.	.	1dd
.	4A	.	.
.	4G	.	.
=21	=21	=21	=21
0r	2A	0r	2cc
.	2G	.	2b-y
.	1d	.	4a
.	.	.	4g
.	.	.	2f
=22	=22	=22	=22
0r	2c	0r	2e
.	2B-y	.	1g
.	1A	.	.
.	.	.	2f#i
=23	=23	=23	=23
0r	0G	0r	0g
=24	=24	=24	=24
1.F	1.c	1.f	1.a
2F	2c	2f	2a
=25	=25	=25	=25
1F	1c	2.c	1a
.	.	4d	.
1E	[1c	4e	1g
.	.	4f	.
.	.	[2g	.
=26	=26	=26	=26
2F	1c]	4g]	1a
.	.	4f	.
2A	.	1f	.
1G	2d	.	2.b-y
.	2B-y	2e	.
.	.	.	4g
=27	=27	=27	=27
2F	1c	2.f	1a
1A	.	.	.
.	.	4e	.
.	2A	2c	2f
2G	2B-y	2B-y	2g
=28	=28	=28	=28
1F	2c	2A	2a
.	2A	1.c	1f
1C	1G	.	.
.	.	.	2e
=29	=29	=29	=29
0D	1F	1A	0f
.	1r	1F	.
=30	=30	=30	=30
1BB-y	0r	1B-y	0r
1r	.	1c	.
=31	=31	=31	=31
0r	0r	1.d	1f
.	.	.	1b-y
.	.	2c	.
=32	=32	=32	=32
0r	0r	1A	1cc
.	.	2G	[1dd
.	.	[2B-y	.
=33	=33	=33	=33
0r	0r	2B-]	2dd]
.	.	4A	4cc
.	.	4G	4b-y
.	.	4F	1a
.	.	4G	.
.	.	4A	.
.	.	4B-y	.
=34	=34	=34	=34
1r	1r	2c	2g
.	.	2B-y	1b-y
1GG	1G	[1d	.
.	.	.	4a
.	.	.	4g
=35	=35	=35	=35
2.D	2.A	1d]	4f
.	.	.	4g
.	.	.	4a
4C	4F	.	4b-y
2AA	1A	2.c	1cc
2A	.	.	.
.	.	4d	.
=36	=36	=36	=36
2G	2B-y	2e	2b-y
2.F	1c	1f	2.a
4E	.	.	4g
4D	[2d	[2f	[2b-y
4C	.	.	.
=37	=37	=37	=37
2.BB-y	2d]	4f]	2b-]
.	.	4e	.
.	2B-y	2.d	1g
4C	.	.	.
1D	1A	.	.
.	.	4c	.
.	.	4B-y	2f#i
.	.	4A	.
=38	=38	=38	=38
[0GGl	[0Gl	1.B-y	[0gl
.	.	2c	.
=39	=39	=39	=39
0GG]	0G]	0dl	0g]
=40||	=40||	=40||	=40||
*M2/1	*M2/1	*M2/1	*M2/1
*met(C|)	*met(C|)	*met(C|)	*met(C|)
!!section: Pleni sunt
!!!OMD: Pleni sunt
1.G	[0B-y	0r	0r
2E	.	.	.
=41	=41	=41	=41
2D	0B-]	0r	0r
1G	.	.	.
[2GG	.	.	.
=42	=42	=42	=42
4GG]	0B-y	0r	0r
4AA	.	.	.
4BB-y	.	.	.
4C	.	.	.
2D	.	.	.
2BB-y	.	.	.
=43	=43	=43	=43
2.E-i	1.B-y	0r	0r
4D	.	.	.
4BB-y	.	.	.
4C	.	.	.
4D	4A	.	.
4EnXi	4G	.	.
=44	=44	=44	=44
2F	2A	0r	0r
1G	2G	.	.
.	1A	.	.
2F#i	.	.	.
=45	=45	=45	=45
1G	0G	0d	1.b-y
1r	.	.	.
.	.	.	2a
=46	=46	=46	=46
1GG	1.B-y	0d	1g
1D	.	.	1f
.	2A	.	.
=47	=47	=47	=47
1E	1G	2.B-y	1g
.	.	4c	.
2r	1F	4d	2d
.	.	4e	.
2D	.	2f	2a
=48	=48	=48	=48
2BB-y	1G	2d	1b-y
2GG	.	2g	.
1D	2D	2.f	2a
.	2A	.	2f
.	.	4e	.
=49	=49	=49	=49
1GG	1B-y	4d	1g
.	.	4c	.
.	.	2B-y	.
2r	2A	2c	2f
[2F	2F	2f	[2cc
=50	=50	=50	=50
2F]	1G	2d	4cc]
.	.	.	4a
2E	.	2e	2b-y
2F	2F	2c	2a
2BB-y	2B-y	[2f	[2dd
=51	=51	=51	=51
2F	2A	2f]	4dd]
.	.	.	4cc
2G	2B-y	2e	1b-y
1F	1c	1f	.
.	.	.	2a
=52	=52	=52	=52
1r	1B-y	2.f	0b-y
.	.	4f	.
2.G	1r	1d	.
4G	.	.	.
=53	=53	=53	=53
1F	2.c	1f	1r
.	4c	.	.
1G	1B-y	1d	2.b-y
.	.	.	4b-y
=54	=54	=54	=54
1F	1c	1r	1a
1r	1B-y	1d	1b-y
=55	=55	=55	=55
1D	0r	2.f	1a
.	.	4d	.
1G	.	4e	1r
.	.	4d	.
.	.	[2g	.
=56	=56	=56	=56
1A	0r	2g]	1cc
.	.	2f#i	.
1G	.	2g	2.b-y
.	.	[2d	.
.	.	.	4g
=57	=57	=57	=57
0r	1r	2d]	2a
.	.	2B-y	1g
.	1c	1A	.
.	.	.	2f#i
=58	=58	=58	=58
2G	2.B-y	1r	1g
1D	.	.	.
.	4G	.	.
.	2A	2r	1r
2BB-y	[2G	2d	.
=59	=59	=59	=59
2AA	2G]	2c	0r
2D	2F	1d	.
1E	1G	.	.
.	.	2c#i	.
=60	=60	=60	=60
0D	0A	0d	1r
.	.	.	1dd
=61	=61	=61	=61
0r	[0d	2.f	2dd
.	.	.	1dd
.	.	4g	.
.	.	1a	.
.	.	.	4cc
.	.	.	4b-y
=62	=62	=62	=62
1D	0d]	1r	1a
2D	.	1a	1r
[2D	.	.	.
=63	=63	=63	=63
2D]	1d	2a	1r
4C	.	1a	.
4BB-y	.	.	.
1AA	[1c	.	1cc
.	.	4g	.
.	.	4f	.
=64	=64	=64	=64
1r	0c_	1e	2cc
.	.	.	1cc
1C	.	1r	.
.	.	.	4b-y
.	.	.	4a
=65	=65	=65	=65
2C	1c]	1g	1g
1C	.	.	.
.	1c	2g	1r
4BB-y	.	[2g	.
4AA	.	.	.
=66	=66	=66	=66
1GG	[0B-y	2g]	1b-y
.	.	4f	.
.	.	4e	.
1r	.	1d	2b-y
.	.	.	[2b-y
=67	=67	=67	=67
1BB-y	0B-]	1r	2b-]
.	.	.	4a
.	.	.	4g
2BB-y	.	1f	1f
[2BB-y	.	.	.
=68	=68	=68	=68
2BB-]	1B-y	2f	1r
4AA	.	1f	.
4GG	.	.	.
1FF	[1A	.	2.f
.	.	4e	.
.	.	4d	4g
=69	=69	=69	=69
2r	0A]	1c	4a
.	.	.	4b-y
2.AA	.	.	2.cc
.	.	2r	.
4BB-y	.	.	4b-y
2C	.	2e	[2a
=70	=70	=70	=70
2D	2F	2d	2a]
2E	2G	2c	2g
1D	1A	1d	2.f
.	.	.	4e
=71	=71	=71	=71
2.E-i	2.G	2.B-y	2.g
4D	4A	4c	4f
2BB-y	1B-y	1d	2d
[2D	.	.	[2f
=72	=72	=72	=72
2D]	2.A	1r	2f]
2.C	.	.	2.e
.	4B-y	.	.
.	1c	[1G	.
4D	.	.	4f
[2E	.	.	[2g
=73	=73	=73	=73
2E]	2.B-y	2G]	2g]
1D	.	1d	1f
.	4c	.	.
.	1d	.	.
[2G	.	2B-y	[2b-y
=74	=74	=74	=74
4G]	1B-y	1G	4b-]
4F	.	.	4a
2.E	.	.	2g
.	1c	2g	2e
4C	.	.	.
[2F	.	2f	[2a
=75	=75	=75	=75
4F]	0A	2c	4a]
4E	.	.	4g
4D	.	2.f	4f
4C	.	.	4e
1D	.	.	1f
.	.	4e	.
.	.	2d	.
=76	=76	=76	=76
0GGl	0Gl	0dl	0gl
=77||	=77||	=77||	=77||
*M2/1	*M2/1	*M2/1	*M2/1
*met(C|)	*met(C|)	*met(C|)	*met(C|)
!!section: Benedictus
!!!OMD: Benedictus
0r	1G	0r	0r
.	2F	.	.
.	[2G	.	.
=78	=78	=78	=78
0r	2G]	0r	1g
.	4F	.	.
.	4E	.	.
.	2D	.	2f
.	[2B-y	.	[2g
=79	=79	=79	=79
0r	2B-]	0r	2g]
.	4A	.	4f
.	4G	.	4e
.	2F	.	2d
.	[2G	.	[2b-y
=80	=80	=80	=80
0r	4G]	0r	2b-]
.	4A	.	.
.	4B-y	.	4a
.	4c	.	4g
.	2d	.	2f
.	[2e-X	.	[2g
=81	=81	=81	=81
0r	2e-]	0r	4g]
.	.	.	4a
.	1d	.	4b-y
.	.	.	4cc
.	.	.	1dd
.	4c	.	.
.	4B-y	.	.
=82	=82	=82	=82
0r	1A	0r	2cc
.	.	.	1a
.	4F	.	.
.	4G	.	.
.	4A	.	4g
.	4B-y	.	4f
=83	=83	=83	=83
0r	2c	0r	2e
.	2.d	.	2.f
.	4c	.	4g
.	[2d	.	2b-y
=84	=84	=84	=84
0r	2d]	0r	2a
.	2B-y	.	1g
.	1A	.	.
.	.	.	2f#i
=85	=85	=85	=85
1r	1G	2r	1g
.	.	2G	.
2r	1r	2.G	1r
2GG	.	.	.
.	.	4A	.
=86	=86	=86	=86
2.GG	0r	4B-y	0r
.	.	4c	.
.	.	2.d	.
4AA	.	.	.
4BB-y	.	.	.
4C	.	4e	.
[2D	.	[2f	.
=87	=87	=87	=87
4D]	0r	2f]	0r
4E	.	.	.
1F	.	4e	.
.	.	4d	.
.	.	2.c	.
4E	.	.	.
4D	.	4d	.
=88	=88	=88	=88
2.C	0r	4e	0r
.	.	4f	.
.	.	2.g	.
4D	.	.	.
4E	.	.	.
4F	.	4f	.
[2G	.	4e	.
.	.	4d	.
=89	=89	=89	=89
2G]	0r	2e	0r
2F	.	1d	.
1E	.	.	.
.	.	2c#i	.
=90	=90	=90	=90
1D	2r	1d	1r
.	2A	.	.
1r	2c	1r	2r
.	2c	.	2e
=91	=91	=91	=91
0r	2c	0r	2g
.	4B-y	.	2g
.	4A	.	.
.	2.G	.	2g
.	.	.	4f
.	4A	.	4e
=92	=92	=92	=92
0r	2.B-y	0r	4d
.	.	.	4e
.	.	.	4f
.	4A	.	4g
.	2F	.	4a
.	.	.	4b-y
.	2A	.	[2cc
=93	=93	=93	=93
0r	2B-y	0r	4cc]
.	.	.	4b-y
.	2d	.	1b-y
.	1c	.	.
.	.	.	2a
=94	=94	=94	=94
2r	1B-y	2r	1b-y
1BB-y	.	1d	.
.	1r	.	1r
2BB-y	.	2d	.
=95	=95	=95	=95
4BB-y	0r	2d	0r
4C	.	.	.
4D	.	4c	.
4E	.	4B-y	.
2F	.	4A	.
.	.	4G	.
2G	.	4g	.
.	.	4f	.
=96	=96	=96	=96
2A	0r	4e	0r
.	.	4d	.
1B-y	.	1g	.
4A	.	[2d	.
4G	.	.	.
=97	=97	=97	=97
2F	0r	2d]	1r
1G	.	4c	.
.	.	4B-y	.
.	.	1A	1cc
2F#i	.	.	.
=98	=98	=98	=98
1G	0r	1G	1b-y
1r	.	2E	2g
.	.	2F	[2a
=99	=99	=99	=99
0r	2r	1D	2a]
.	1d	.	2f
.	.	1A	1e
.	2c	.	.
=100	=100	=100	=100
1r	2A	2c	2r
.	1B-y	2B-y	1dd
1B-y	.	1G	.
.	2G	.	4cc
.	.	.	4b-y
=101	=101	=101	=101
1A	2F	2r	2cc
.	1c	2e	1a
2F	.	2f	.
[2G	2B-y	2d	[2b-y
=102	=102	=102	=102
2G]	1G	2B-y	4b-]
.	.	.	4a
2E	.	2c	1g
1D	1A	1d	.
.	.	.	2f#i
=103	=103	=103	=103
1E-X	1G	2.B-y	1g
.	.	4c	.
1D	2r	4d	1r
.	.	4e	.
.	[2F	2f	.
=104	=104	=104	=104
2BB-y	2F]	2d	0r
1C	2E	1e-X	.
.	1C	.	.
2AA	.	2c	.
=105	=105	=105	=105
1GG	2D	2.B-y	1dd
.	1G	.	.
.	.	4c	.
1r	.	2d	2b-y
.	[2C	[2e-i	[2cc
=106	=106	=106	=106
0r	4C]	2e-]	2cc]
.	4D	.	.
.	2F	1d	2a
.	1E	.	1g
.	.	2c#i	.
=107	=107	=107	=107
1A	1D	2d	1f
.	.	2f	.
1G	1r	4e	1r
.	.	4d	.
.	.	4c	.
.	.	4B-y	.
=108	=108	=108	=108
2E	0r	4c	0r
.	.	4B-y	.
1F	.	4A	.
.	.	4G	.
.	.	2F	.
2D	.	[2B-y	.
=109	=109	=109	=109
1C	1r	2B-]	1r
.	.	2A	.
1r	1G	1B-y	1b-y
=110	=110	=110	=110
0r	1F	1c	1a
.	2D	2d	2f
.	[2E-i	2B-y	[2g
=111	=111	=111	=111
1r	2E-]	2.G	2g]
.	4D	.	4f
.	4C	4A	4e
1G	2BB-y	4B-y	2.d
.	.	4c	.
.	[2B-y	4d	.
.	.	4e	4B-y
=112	=112	=112	=112
1F	2B-]	1f	1c
.	2A	.	.
2D	[1B-y	1r	2r
[2E-X	.	.	[2g
=113	=113	=113	=113
2E-]	0B-_	1r	2g]
2C	.	.	4f
.	.	.	4e
1BB-y	.	1f	2d
.	.	.	2f
=114	=114	=114	=114
0r	1B-]	1d	2g
.	.	.	2.b-y
.	2.G	2.B-y	.
.	.	.	4a
.	.	.	[2g
.	4A	4c	.
=115	=115	=115	=115
2r	2B-y	2d	4g]
.	.	.	4f
1A	2c	1c	2f
.	2A	.	2e
2G	2B-y	2d	[2g
=116	=116	=116	=116
2E	2G	2e	2g]
1F	2c	2c	2.a
.	1F	2.A	.
.	.	.	4g
2D	.	.	[2f
.	.	4B-y	.
=117	=117	=117	=117
1C	1G	1c	2f]
.	.	.	2e
1r	2.F	2r	1f
.	.	[2f	.
.	4G	.	.
=118	=118	=118	=118
2r	1A	4f]	0r
.	.	4e	.
1F	.	2c	.
.	2F	2d	.
2E	[2G	[2e	.
=119	=119	=119	=119
2C	2G]	2e]	0r
1D	2D	1f	.
.	2F	.	.
2BB-y	2G	[2d	.
=120	=120	=120	=120
1AA	1E	2d]	0r
.	.	2c#i	.
1r	2.D	1d	.
.	4E	.	.
=121	=121	=121	=121
2r	2F	1r	2.d
1B-y	2BB-y	.	.
.	.	.	4e
.	2B-y	2d	4f
.	.	.	4g
2A	[2c	2e	[2a
=122	=122	=122	=122
2F	2c]	2f	2a]
1G	2G	1d	2.b-y
.	2B-y	.	.
.	.	.	4a
2E	2c	2c	[2g
=123	=123	=123	=123
1D	1A	1d	2g]
.	.	.	2f#i
=-	=-	=-	=-
*M3/1	*M3/1	*M3/1	*M3/1
*met(C|3)	*met(C|3)	*met(C|3)	*met(C|3)
[1GG	[1G	[1d	[1g
=124	=124	=124	=124
0.GG_	0G]	0.d_	0.g]
.	[1B-y	.	.
=125	=125	=125	=125
1GG]	1B-]	1d]	1r
0D	0A	0f	1r
.	.	.	1r
=126	=126	=126	=126
2C	0c	0e	0g
2D	.	.	.
2E	.	.	.
2F	.	.	.
[1G	1B-y	1d	[1b-y
=127	=127	=127	=127
1G]	0d	1g	1b-]
1D	.	0f	0a
1F	[1c	.	.
=128	=128	=128	=128
1A	1c]	1e	0cc
0G	0d	0g	.
.	.	.	1b-y
=129	=129	=129	=129
1A	0c	1e	1.a
2F	.	0f	.
2E	.	.	2g
2D	[1d	.	2f
2C	.	.	2e
=130	=130	=130	=130
1BB-y	1d]	1f	1d
1.C	0c	1e	1.e
.	.	[1c	.
2D	.	.	2f
=131	=131	=131	=131
1E	1G	1c]	0g
0D	0A	0d	.
.	.	.	1f#i
=132	=132	=132	=132
1.E-X	[0.Gl	0B-y	[0.gl
2D	.	.	.
1C	.	1c	.
=133	=133	=133	=133
1BB-y	0.G_	1d	0.g_
0C	.	1.e-X	.
.	.	4d	.
.	.	4c	.
=134	=134	=134	=134
0.GGl	0.G]	0.dl	0.g]
==	==	==	==
*-	*-	*-	*-
!!!system-decoration: s1,s2,s3,s4
!!!RDF**kern: i = editorial accidental
!!!RDF**kern: l = terminal long
!!!ENC: Maura Sugg
!!!END: 2026/6/28
!!!EED: Benjamin Ory
!!!EEV: 2026/07/14
!!!YEC: Copyright 2026 Benjamin Ory, All Rights Reserved
!!!ONB: Translated from MusicXML on 2026/07/14
!!!verovio: header encoded
!!!header-left: Edited by Zoe Saunders (2010)\n
!!!header-right:
!!!header-center:
!!muse2ps: T^@{OPR}^u^@{ONM}{. }@{OTL}^C^@{COM}^i2I150v90,90,90,120c120z18l2770t130
